output/footprints/LKBD_PlateMX.pretty/Plate_MX_2.75U.svg

<?xml version="1.0" standalone="no"?>
 <!DOCTYPE svg PUBLIC "-//W3C//DTD SVG 1.1//EN" 
 "http://www.w3.org/Graphics/SVG/1.1/DTD/svg11.dtd"> 
<svg
  xmlns:svg="http://www.w3.org/2000/svg"
  xmlns="http://www.w3.org/2000/svg"
  xmlns:xlink="http://www.w3.org/1999/xlink"
  version="1.1"
  width="52.4764mm" height="19.1262mm" viewBox="0.0000 0.0000 52.4764 19.1262">
<title>SVG Image created as Plate_MX_2.75U.svg date 2025/05/12 22:52:38 </title>
  <desc>Image generated by PCBNEW </desc>
<g style="fill:#000000; fill-opacity:1.0000;stroke:#000000; stroke-opacity:1.0000;
stroke-linecap:round; stroke-linejoin:round;"
 transform="translate(0 0) scale(1 1)">
</g>
<g style="fill:none; 
stroke:#4D7FC4; stroke-width:0.5000; stroke-opacity:1; 
stroke-linecap:round; stroke-linejoin:round;">
<path d="M18.9937 16.0750
L18.9937 3.0750
" />
<path d="M19.7437 2.3250
L32.7437 2.3250
" />
<path d="M32.7437 16.8250
L19.7437 16.8250
" />
<path d="M33.4937 3.0750
L33.4937 16.0750
" />
<path d="M19.7437 2.3250 A0.7500 0.7500 0.0 0 0 18.9937 3.0750" />
<path d="M18.9937 16.0750 A0.7500 0.7500 0.0 0 0 19.7437 16.8250" />
<path d="M33.4937 3.0750 A0.7500 0.7500 0.0 0 0 32.7437 2.3250" />
<path d="M32.7437 16.8250 A0.7500 0.7500 0.0 0 0 33.4937 16.0750" />
</g>
<g style="fill:none; 
stroke:#C83434; stroke-width:0.5000; stroke-opacity:1; 
stroke-linecap:round; stroke-linejoin:round;">
<path d="M18.9937 16.0750
L18.9937 3.0750
" />
<path d="M19.7437 2.3250
L32.7437 2.3250
" />
<path d="M32.7437 16.8250
L19.7437 16.8250
" />
<path d="M33.4937 3.0750
L33.4937 16.0750
" />
<path d="M19.7437 2.3250 A0.7500 0.7500 0.0 0 0 18.9937 3.0750" />
<path d="M18.9937 16.0750 A0.7500 0.7500 0.0 0 0 19.7437 16.8250" />
<path d="M33.4937 3.0750 A0.7500 0.7500 0.0 0 0 32.7437 2.3250" />
<path d="M32.7437 16.8250 A0.7500 0.7500 0.0 0 0 33.4937 16.0750" />
</g>
<g style="fill:none; 
stroke:#AFAFAF; stroke-width:0.1500; stroke-opacity:1; 
stroke-linecap:round; stroke-linejoin:round;">
<text x="26.2437" y="9.2750"
textLength="12.1071" font-size="1.3333" lengthAdjust="spacingAndGlyphs"
text-anchor="middle" opacity="0" stroke-opacity="0">Plate_MX_2.75U</text>
<g class="stroked-text"><desc>Plate_MX_2.75U</desc>
<path d="M20.5533 9.2298
L20.5533 8.2298
" />
<path d="M20.5533 8.2298
L20.9342 8.2298
" />
<path d="M20.9342 8.2298
L21.0295 8.2774
" />
<path d="M21.0295 8.2774
L21.0771 8.3251
" />
<path d="M21.0771 8.3251
L21.1247 8.4203
" />
<path d="M21.1247 8.4203
L21.1247 8.5632
" />
<path d="M21.1247 8.5632
L21.0771 8.6584
" />
<path d="M21.0771 8.6584
L21.0295 8.7060
" />
<path d="M21.0295 8.7060
L20.9342 8.7536
" />
<path d="M20.9342 8.7536
L20.5533 8.7536
" />
<path d="M21.6961 9.2298
L21.6009 9.1822
" />
<path d="M21.6009 9.1822
L21.5533 9.0870
" />
<path d="M21.5533 9.0870
L21.5533 8.2298
" />
<path d="M22.5057 9.2298
L22.5057 8.7060
" />
<path d="M22.5057 8.7060
L22.4580 8.6108
" />
<path d="M22.4580 8.6108
L22.3628 8.5632
" />
<path d="M22.3628 8.5632
L22.1723 8.5632
" />
<path d="M22.1723 8.5632
L22.0771 8.6108
" />
<path d="M22.5057 9.1822
L22.4104 9.2298
" />
<path d="M22.4104 9.2298
L22.1723 9.2298
" />
<path d="M22.1723 9.2298
L22.0771 9.1822
" />
<path d="M22.0771 9.1822
L22.0295 9.0870
" />
<path d="M22.0295 9.0870
L22.0295 8.9917
" />
<path d="M22.0295 8.9917
L22.0771 8.8965
" />
<path d="M22.0771 8.8965
L22.1723 8.8489
" />
<path d="M22.1723 8.8489
L22.4104 8.8489
" />
<path d="M22.4104 8.8489
L22.5057 8.8012
" />
<path d="M22.8390 8.5632
L23.2199 8.5632
" />
<path d="M22.9818 8.2298
L22.9818 9.0870
" />
<path d="M22.9818 9.0870
L23.0295 9.1822
" />
<path d="M23.0295 9.1822
L23.1247 9.2298
" />
<path d="M23.1247 9.2298
L23.2199 9.2298
" />
<path d="M23.9342 9.1822
L23.8390 9.2298
" />
<path d="M23.8390 9.2298
L23.6485 9.2298
" />
<path d="M23.6485 9.2298
L23.5533 9.1822
" />
<path d="M23.5533 9.1822
L23.5057 9.0870
" />
<path d="M23.5057 9.0870
L23.5057 8.7060
" />
<path d="M23.5057 8.7060
L23.5533 8.6108
" />
<path d="M23.5533 8.6108
L23.6485 8.5632
" />
<path d="M23.6485 8.5632
L23.8390 8.5632
" />
<path d="M23.8390 8.5632
L23.9342 8.6108
" />
<path d="M23.9342 8.6108
L23.9818 8.7060
" />
<path d="M23.9818 8.7060
L23.9818 8.8012
" />
<path d="M23.9818 8.8012
L23.5057 8.8965
" />
<path d="M24.1723 9.3251
L24.9342 9.3251
" />
<path d="M25.1723 9.2298
L25.1723 8.2298
" />
<path d="M25.1723 8.2298
L25.5057 8.9441
" />
<path d="M25.5057 8.9441
L25.8390 8.2298
" />
<path d="M25.8390 8.2298
L25.8390 9.2298
" />
<path d="M26.2199 8.2298
L26.8866 9.2298
" />
<path d="M26.8866 8.2298
L26.2199 9.2298
" />
<path d="M27.0295 9.3251
L27.7914 9.3251
" />
<path d="M27.9818 8.3251
L28.0295 8.2774
" />
<path d="M28.0295 8.2774
L28.1247 8.2298
" />
<path d="M28.1247 8.2298
L28.3628 8.2298
" />
<path d="M28.3628 8.2298
L28.4580 8.2774
" />
<path d="M28.4580 8.2774
L28.5057 8.3251
" />
<path d="M28.5057 8.3251
L28.5533 8.4203
" />
<path d="M28.5533 8.4203
L28.5533 8.5155
" />
<path d="M28.5533 8.5155
L28.5057 8.6584
" />
<path d="M28.5057 8.6584
L27.9342 9.2298
" />
<path d="M27.9342 9.2298
L28.5533 9.2298
" />
<path d="M28.9818 9.1346
L29.0295 9.1822
" />
<path d="M29.0295 9.1822
L28.9818 9.2298
" />
<path d="M28.9818 9.2298
L28.9342 9.1822
" />
<path d="M28.9342 9.1822
L28.9818 9.1346
" />
<path d="M28.9818 9.1346
L28.9818 9.2298
" />
<path d="M29.3628 8.2298
L30.0295 8.2298
" />
<path d="M30.0295 8.2298
L29.6009 9.2298
" />
<path d="M30.8866 8.2298
L30.4104 8.2298
" />
<path d="M30.4104 8.2298
L30.3628 8.7060
" />
<path d="M30.3628 8.7060
L30.4104 8.6584
" />
<path d="M30.4104 8.6584
L30.5057 8.6108
" />
<path d="M30.5057 8.6108
L30.7437 8.6108
" />
<path d="M30.7437 8.6108
L30.8390 8.6584
" />
<path d="M30.8390 8.6584
L30.8866 8.7060
" />
<path d="M30.8866 8.7060
L30.9342 8.8012
" />
<path d="M30.9342 8.8012
L30.9342 9.0393
" />
<path d="M30.9342 9.0393
L30.8866 9.1346
" />
<path d="M30.8866 9.1346
L30.8390 9.1822
" />
<path d="M30.8390 9.1822
L30.7437 9.2298
" />
<path d="M30.7437 9.2298
L30.5057 9.2298
" />
<path d="M30.5057 9.2298
L30.4104 9.1822
" />
<path d="M30.4104 9.1822
L30.3628 9.1346
" />
<path d="M31.3628 8.2298
L31.3628 9.0393
" />
<path d="M31.3628 9.0393
L31.4104 9.1346
" />
<path d="M31.4104 9.1346
L31.4580 9.1822
" />
<path d="M31.4580 9.1822
L31.5533 9.2298
" />
<path d="M31.5533 9.2298
L31.7437 9.2298
" />
<path d="M31.7437 9.2298
L31.8390 9.1822
" />
<path d="M31.8390 9.1822
L31.8866 9.1346
" />
<path d="M31.8866 9.1346
L31.9342 9.0393
" />
<path d="M31.9342 9.0393
L31.9342 8.2298
" />
</g><text x="26.2437" y="10.8750"
textLength="4.5357" font-size="1.3333" lengthAdjust="spacingAndGlyphs"
text-anchor="middle" opacity="0" stroke-opacity="0">REF**</text>
<g class="stroked-text"><desc>REF**</desc>
<path d="M24.9104 10.8298
L24.5771 10.3536
" />
<path d="M24.3390 10.8298
L24.3390 9.8298
" />
<path d="M24.3390 9.8298
L24.7199 9.8298
" />
<path d="M24.7199 9.8298
L24.8152 9.8774
" />
<path d="M24.8152 9.8774
L24.8628 9.9251
" />
<path d="M24.8628 9.9251
L24.9104 10.0203
" />
<path d="M24.9104 10.0203
L24.9104 10.1632
" />
<path d="M24.9104 10.1632
L24.8628 10.2584
" />
<path d="M24.8628 10.2584
L24.8152 10.3060
" />
<path d="M24.8152 10.3060
L24.7199 10.3536
" />
<path d="M24.7199 10.3536
L24.3390 10.3536
" />
<path d="M25.3390 10.3060
L25.6723 10.3060
" />
<path d="M25.8152 10.8298
L25.3390 10.8298
" />
<path d="M25.3390 10.8298
L25.3390 9.8298
" />
<path d="M25.3390 9.8298
L25.8152 9.8298
" />
<path d="M26.5771 10.3060
L26.2437 10.3060
" />
<path d="M26.2437 10.8298
L26.2437 9.8298
" />
<path d="M26.2437 9.8298
L26.7199 9.8298
" />
<path d="M27.2437 9.8298
L27.2437 10.0679
" />
<path d="M27.0057 9.9727
L27.2437 10.0679
" />
<path d="M27.2437 10.0679
L27.4818 9.9727
" />
<path d="M27.1009 10.2584
L27.2437 10.0679
" />
<path d="M27.2437 10.0679
L27.3866 10.2584
" />
<path d="M28.0057 9.8298
L28.0057 10.0679
" />
<path d="M27.7676 9.9727
L28.0057 10.0679
" />
<path d="M28.0057 10.0679
L28.2437 9.9727
" />
<path d="M27.8628 10.2584
L28.0057 10.0679
" />
<path d="M28.0057 10.0679
L28.1485 10.2584
" />
</g></g>
<g style="fill:none; 
stroke:#D0D2CD; stroke-width:0.0500; stroke-opacity:1; 
stroke-linecap:round; stroke-linejoin:round;">
<path d="M10.9625 4.0750
L10.9625 17.0750
" />
<path d="M11.4625 3.5750
L17.2125 3.5750
" />
<path d="M11.4625 17.5750
L17.2125 17.5750
" />
<path d="M17.7125 4.0750
L17.7125 17.0750
" />
<path d="M19.2437 16.0750
L19.2437 3.0750
" />
<path d="M19.7437 2.5750
L32.7437 2.5750
" />
<path d="M32.7437 16.5750
L19.7437 16.5750
" />
<path d="M33.2437 3.0750
L33.2437 16.0750
" />
<path d="M34.7750 4.0750
L34.7750 17.0750
" />
<path d="M35.2750 3.5750
L41.0238 3.5750
" />
<path d="M35.2750 17.5750
L41.0250 17.5750
" />
<path d="M41.5238 4.0750
L41.5250 17.0750
" />
<path d="M11.4625 3.5750 A0.5000 0.5000 0.0 0 0 10.9625 4.0750" />
<path d="M10.9625 17.0750 A0.5000 0.5000 0.0 0 0 11.4625 17.5750" />
<path d="M17.7125 4.0750 A0.5000 0.5000 0.0 0 0 17.2125 3.5750" />
<path d="M17.2125 17.5750 A0.5000 0.5000 0.0 0 0 17.7125 17.0750" />
<path d="M19.7437 2.5750 A0.5000 0.5000 0.0 0 0 19.2437 3.0750" />
<path d="M19.2437 16.0750 A0.5000 0.5000 0.0 0 0 19.7437 16.5750" />
<path d="M33.2437 3.0750 A0.5000 0.5000 0.0 0 0 32.7437 2.5750" />
<path d="M32.7437 16.5750 A0.5000 0.5000 0.0 0 0 33.2437 16.0750" />
<path d="M35.2750 3.5750 A0.5000 0.5000 0.0 0 0 34.7750 4.0750" />
<path d="M34.7750 17.0750 A0.5001 0.5001 0.0 0 0 35.2750 17.5750" />
<path d="M41.5238 4.0750 A0.5001 0.5001 0.0 0 0 41.0238 3.5750" />
<path d="M41.0250 17.5749 A0.4999 0.4999 0.0 0 0 41.5250 17.0750" />
<path style="fill:none; 
stroke:#C2C2C2; stroke-width:0.1000; stroke-opacity:1; 
stroke-linecap:round; stroke-linejoin:round;fill:none"
d="M 0.0500,0.0500
52.4375,0.0500
52.4375,19.1000
0.0500,19.1000
Z" /> 
</g> 
</svg>

<svg xmlns="http://www.w3.org/2000/svg" width="198.336" height="72.288" viewBox="0 0 52.476 19.126">
    <g style="fill:none;stroke:#4d7fc4;stroke-width:.5;stroke-opacity:1;stroke-linecap:round;stroke-linejoin:round">
        <path d="M18.994 16.075v-13M19.744 2.325h13M32.744 16.825h-13M33.494 3.075v13M19.744 2.325a.75.75 0 0 0-.75.75M18.994 16.075a.75.75 0 0 0 .75.75M33.494 3.075a.75.75 0 0 0-.75-.75M32.744 16.825a.75.75 0 0 0 .75-.75"/>
    </g>
    <g style="fill:none;stroke:#c83434;stroke-width:.5;stroke-opacity:1;stroke-linecap:round;stroke-linejoin:round">
        <path d="M18.994 16.075v-13M19.744 2.325h13M32.744 16.825h-13M33.494 3.075v13M19.744 2.325a.75.75 0 0 0-.75.75M18.994 16.075a.75.75 0 0 0 .75.75M33.494 3.075a.75.75 0 0 0-.75-.75M32.744 16.825a.75.75 0 0 0 .75-.75"/>
    </g>
    <g style="fill:none;stroke:#afafaf;stroke-width:.15;stroke-opacity:1;stroke-linecap:round;stroke-linejoin:round">
        <g class="stroked-text">
            <path d="M20.553 9.23v-1M20.553 8.23h.381M20.934 8.23l.095.047M21.03 8.277l.047.048M21.077 8.325l.048.095M21.125 8.42v.143M21.125 8.563l-.048.095M21.077 8.658l-.048.048M21.03 8.706l-.096.048M20.934 8.754h-.38M21.696 9.23l-.095-.048M21.6 9.182l-.047-.095M21.553 9.087V8.23M22.506 9.23v-.524M22.506 8.706l-.048-.095M22.458 8.61l-.095-.047M22.363 8.563h-.19M22.172 8.563l-.095.048M22.506 9.182l-.096.048M22.41 9.23h-.238M22.172 9.23l-.095-.048M22.077 9.182l-.048-.095M22.03 9.087v-.095M22.03 8.992l.047-.096M22.077 8.897l.095-.048M22.172 8.849h.238M22.41 8.849l.096-.048M22.839 8.563h.38M22.982 8.23v.857M22.982 9.087l.047.095M23.03 9.182l.095.048M23.125 9.23h.095M23.934 9.182l-.095.048M23.839 9.23h-.19M23.649 9.23l-.096-.048M23.553 9.182l-.047-.095M23.506 9.087v-.381M23.506 8.706l.047-.095M23.553 8.61l.095-.047M23.649 8.563h.19M23.839 8.563l.095.048M23.934 8.61l.048.096M23.982 8.706v.095M23.982 8.801l-.476.095M24.172 9.325h.762M25.172 9.23v-1M25.172 8.23l.334.714M25.506 8.944l.333-.714M25.839 8.23v1M26.22 8.23l.667 1M26.887 8.23l-.667 1M27.03 9.325h.761M27.982 8.325l.047-.048M28.03 8.277l.095-.047M28.125 8.23h.238M28.363 8.23l.095.047M28.458 8.277l.048.048M28.506 8.325l.047.095M28.553 8.42v.095M28.553 8.516l-.047.142M28.506 8.658l-.572.572M27.934 9.23h.62M28.982 9.135l.047.047M29.03 9.182l-.048.048M28.982 9.23l-.048-.048M28.934 9.182l.048-.047M28.982 9.135v.095M29.363 8.23h.666M30.03 8.23l-.43 1M30.887 8.23h-.477M30.41 8.23l-.047.476M30.363 8.706l.047-.048M30.41 8.658l.096-.047M30.506 8.61h.238M30.744 8.61l.095.048M30.839 8.658l.048.048M30.887 8.706l.047.095M30.934 8.801v.238M30.934 9.04l-.047.095M30.887 9.135l-.048.047M30.839 9.182l-.095.048M30.744 9.23h-.238M30.506 9.23l-.096-.048M30.41 9.182l-.047-.047M31.363 8.23v.81M31.363 9.04l.047.095M31.41 9.135l.048.047M31.458 9.182l.095.048M31.553 9.23h.19M31.744 9.23l.095-.048M31.839 9.182l.048-.047M31.887 9.135l.047-.096M31.934 9.04v-.81"/>
        </g>
        <g class="stroked-text">
            <path d="m24.91 10.83-.333-.476M24.339 10.83v-1M24.339 9.83h.38M24.72 9.83l.095.047M24.815 9.877l.048.048M24.863 9.925l.047.095M24.91 10.02v.143M24.91 10.163l-.047.095M24.863 10.258l-.048.048M24.815 10.306l-.095.048M24.72 10.354h-.381M25.339 10.306h.333M25.815 10.83h-.476M25.339 10.83v-1M25.339 9.83h.476M26.577 10.306h-.333M26.244 10.83v-1M26.244 9.83h.476M27.244 9.83v.238M27.006 9.973l.238.095M27.244 10.068l.238-.095M27.1 10.258l.144-.19M27.244 10.068l.143.19M28.006 9.83v.238M27.768 9.973l.238.095M28.006 10.068l.238-.095M27.863 10.258l.143-.19M28.006 10.068l.142.19"/>
        </g>
    </g>
    <g style="fill:none;stroke:#d0d2cd;stroke-width:.05;stroke-opacity:1;stroke-linecap:round;stroke-linejoin:round">
        <path d="M10.963 4.075v13M11.463 3.575h5.75M11.463 17.575h5.75M17.713 4.075v13M19.244 16.075v-13M19.744 2.575h13M32.744 16.575h-13M33.244 3.075v13M34.775 4.075v13M35.275 3.575h5.749M35.275 17.575h5.75M41.524 4.075l.001 13M11.463 3.575a.5.5 0 0 0-.5.5M10.963 17.075a.5.5 0 0 0 .5.5M17.713 4.075a.5.5 0 0 0-.5-.5M17.213 17.575a.5.5 0 0 0 .5-.5M19.744 2.575a.5.5 0 0 0-.5.5M19.244 16.075a.5.5 0 0 0 .5.5M33.244 3.075a.5.5 0 0 0-.5-.5M32.744 16.575a.5.5 0 0 0 .5-.5M35.275 3.575a.5.5 0 0 0-.5.5M34.775 17.075a.5.5 0 0 0 .5.5M41.524 4.075a.5.5 0 0 0-.5-.5M41.025 17.575a.5.5 0 0 0 .5-.5"/>
        <path d="M.05.05h52.388V19.1H.05Z" style="stroke:#c2c2c2;stroke-width:.1;stroke-opacity:1;stroke-linecap:round;stroke-linejoin:round;fill:none"/>
    </g>
</svg>
